icons/unity-panel/22x22/panel/indicator-notification-read-dnd.svg

<?xml version="1.0" encoding="UTF-8" standalone="no"?>
<svg
   viewBox="0 0 22 22"
   version="1.1"
   id="svg10"
   sodipodi:docname="indicator-notification-read-dnd.svg"
   inkscape:version="1.1.1 (3bf5ae0d25, 2021-09-20)"
   xmlns:inkscape="http://www.inkscape.org/namespaces/inkscape"
   xmlns:sodipodi="http://sodipodi.sourceforge.net/DTD/sodipodi-0.dtd"
   xmlns="http://www.w3.org/2000/svg"
   xmlns:svg="http://www.w3.org/2000/svg">
  <defs
     id="defs14" />
  <sodipodi:namedview
     id="namedview12"
     pagecolor="#ffffff"
     bordercolor="#666666"
     borderopacity="1.0"
     inkscape:pageshadow="2"
     inkscape:pageopacity="0.0"
     inkscape:pagecheckerboard="0"
     showgrid="true"
     inkscape:zoom="34.198256"
     inkscape:cx="11.067816"
     inkscape:cy="10.994713"
     inkscape:window-width="1852"
     inkscape:window-height="1043"
     inkscape:window-x="1434"
     inkscape:window-y="0"
     inkscape:window-maximized="1"
     inkscape:current-layer="svg10">
    <inkscape:grid
       type="xygrid"
       id="grid849" />
  </sodipodi:namedview>
  <path
     d="m 11.022638,4.0000671 c -1.5260853,0 -2.5441752,0.7808126 -3.0722702,1.8378826 C 7.4213328,6.8950397 7.2756042,8.1911275 7.1495954,9.4492156 7.0235866,10.707304 6.9204076,11.936492 6.6164004,12.767584 6.5599794,12.921633 6.4953516,13.055822 6.4269522,13.17969 L 7.8996383,11.707004 C 8.0127272,11.010661 8.0732367,10.274318 8.145726,9.5488247 8.2697348,8.3067364 8.4368732,7.1032478 8.8468894,6.2851555 9.2539157,5.4671232 9.7975707,4.9999677 11.022668,4.9999677 c 1.224088,0 1.768683,0.4670555 2.17768,1.2851878 0.01326,0.026509 0.02436,0.056679 0.03711,0.083983 L 13.98159,5.6250057 C 13.424805,4.6766147 12.443705,4.0000211 11.022618,4.0000211 Z M 17.049881,4.0274111 4.55,16.527293 5.2570234,17.234316 7.4914023,14.999937 h 9.5311087 v -0.99999 c -0.470025,0 -0.764792,-0.116439 -1.00589,-0.314447 C 15.776603,13.486492 15.580745,13.182564 15.428736,12.767538 15.124719,11.937506 15.02154,10.707258 14.895541,9.4491696 14.840482,8.8994148 14.781203,8.3437801 14.688514,7.8026852 l 3.06837,-3.068371 -0.707023,-0.7070234 z m -3.246069,4.660156 c 0.0362,0.2824973 0.06662,0.5700146 0.0957,0.8613219 0.124009,1.242088 0.210718,2.516576 0.593744,3.560466 0.126009,0.346017 0.368877,0.609614 0.587885,0.890612 H 8.4914027 L 13.803852,8.6875168 Z M 8.9991579,15.999998 c 0.012511,1.108589 0.9147818,1.999981 2.0233801,1.999981 1.10869,0 2.010881,-0.891372 2.023381,-1.999981 H 8.9990579 Z"
     fill="#808080"
     style="font-variant-ligatures:normal;font-variant-position:normal;font-variant-caps:normal;font-variant-numeric:normal;font-variant-alternates:normal;font-variant-east-asian:normal;font-feature-settings:normal;font-variation-settings:normal;text-indent:0;text-decoration-line:none;text-decoration-style:solid;text-decoration-color:#000000;text-transform:none;text-orientation:mixed;white-space:normal;shape-padding:0;shape-margin:0;inline-size:0;isolation:auto;mix-blend-mode:normal;fill:#ffffff;stroke-width:0.999991"
     id="path2-3" />
</svg>

<svg version="1.1" viewBox="0 0 22 22" xmlns="http://www.w3.org/2000/svg">
 <path d="m11.023 4.0001c-1.5261 0-2.5442 0.78081-3.0723 1.8379-0.52904 1.0571-0.67476 2.3532-0.80077 3.6113-0.12601 1.2581-0.22919 2.4873-0.5332 3.3184-0.056421 0.15405-0.12105 0.28824-0.18945 0.41211l1.4727-1.4727c0.11309-0.69634 0.1736-1.4327 0.24609-2.1582 0.12401-1.2421 0.29115-2.4456 0.70116-3.2637 0.40703-0.81803 0.95068-1.2852 2.1758-1.2852 1.2241 0 1.7687 0.46706 2.1777 1.2852 0.01326 0.026509 0.02436 0.056679 0.03711 0.083983l0.74413-0.74413c-0.55678-0.94839-1.5379-1.625-2.959-1.625zm6.0272 0.027344-12.5 12.5 0.70702 0.70702 2.2344-2.2344h9.5311v-0.99999c-0.47002 0-0.76479-0.11644-1.0059-0.31445-0.24002-0.19901-0.43588-0.50294-0.58788-0.91796-0.30402-0.83003-0.4072-2.0603-0.5332-3.3184-0.055059-0.54975-0.11434-1.1054-0.20703-1.6465l3.0684-3.0684-0.70702-0.70702zm-3.2461 4.6602c0.0362 0.2825 0.06662 0.57001 0.0957 0.86132 0.12401 1.2421 0.21072 2.5166 0.59374 3.5605 0.12601 0.34602 0.36888 0.60961 0.58788 0.89061h-6.5897l5.3124-5.3125zm-4.8047 7.3124c0.012511 1.1086 0.91478 2 2.0234 2 1.1087 0 2.0109-0.89137 2.0234-2h-4.0469z" fill="#fff" stroke-width=".99999" style="font-feature-settings:normal;font-variant-alternates:normal;font-variant-caps:normal;font-variant-east-asian:normal;font-variant-ligatures:normal;font-variant-numeric:normal;font-variant-position:normal;font-variation-settings:normal;inline-size:0;isolation:auto;mix-blend-mode:normal;shape-margin:0;shape-padding:0;text-decoration-color:#000000;text-decoration-line:none;text-decoration-style:solid;text-indent:0;text-orientation:mixed;text-transform:none;white-space:normal"/>
</svg>
